!!!!SEGMENT: pl-wtm--r-90-n--001_noskowski-zygmunt--piesni-op-63-pastereczka-piekna.krn
!!!cenid: 18xx:2120
!!!COM: Noskowski, Zygmunt
!!!COM-rismID: pe106604
!!!CDT: 1846/05/02-1909/07/23
!!!CNT: Polish
!!!GTL: Pieśni op. 63
!!!OTL: Pastereczka piękna
!!!PDT: 1899
!!!AGN: Secular; Song
!!!SMS-siglum: PL-Wtm
!!!SMS-shelfmark: R 90/N
!!!SMS-shelfwork: 001 G
!!!SMS-variant:
!!!SMS-altvar:
!!!NIFC-rismSourceID: 1001099973
!!!NIFC-islandoraID:
!!!URL-pdf-islandora:
!!!URL-scan:
!!!ONB-nifc: UWAGA: w zbiorze 10 krótkich pieśni
!!!OMD: Allegretto moderato
!!!AIN: 1 empty
!!!key:
**kern	**kern	**text
*part1	*part1	*part1
*staff2	*staff1	*staff1
*Iempty	*Iempty	*
*I"	*I"	*
*clefF4	*clefG2	*
*k[f#]	*k[f#]	*
*G:	*G:	*
*M2/4	*M2/4	*
=1	=1	=1
!	!LO:TX:a:i:t=Zaczęte w Sobotę 29/4 99\no G. 89 rano.	!
(16BLL 16G\	8.g/	Pas-
16d\J	.	.
8BJ 8G\)	.	.
.	16f#/	-te-
8BL 8G\	8e/	-re-
8BJ 8G\	8f#/	-czka
=2	=2	=2
(16cLL 16G\	8a/	pięk-
16d\J	.	.
8c\J)	8f#/	-na,
8cL 8G\	8e/	mi-
8cJ 8G\	8d/	-ła,
=3	=3	=3
(16BLL 16G\	8.g/	Ca-
16d\J	.	.
8BJ 8G\)	.	.
.	16f#/	-ły
8cL 8G\	8e/	Bo-
8AJ 8G\	8f#/	-ży
=4	=4	=4
(16BLL 16G\	8g/	dzień
16d\J	.	.
8BJ 8G\)	8a/	tań-
8BL 8G\	8b/	-czy-
8BJ 8G\	8g/	-ła
=5	=5	=5
16GLL 16E\	8.a/	Nie
16c#X\J	.	.
8GJ 8E\	.	.
.	16b/	zwa-
8GL 8E\	8cc#X\	-ża-
8GJ 8E\	8b/	-ła
!!LO:LB:g=original
=6	=6	=6
(16ALL 16D\	8b\	na
16d\J	.	.
8AJ 8D\)	8a/	ba-
8AL 8D\	8dd\	-ran-
8AJ 8D\	8f#/	-ki,
=7	=7	=7
4B 4G\	8e/	Co
.	8b\	się
4c#X 4A\	8a/	pa-
.	8g/	-sły
=8	=8	=8
4d\	8.f#/	śród
.	16g/	po-
4cn 4D\	8a/	-lan-
.	8f#/	-ki
=9	=9	=9
4B 4G\	4g/	Me,
4c 4A\	4f#/	me
=10	=10	=10
8.B\L	2d/	me
16F#\Jk	.	.
8G\L	.	.
8BB\J	.	.
=11	=11	=11
4G 4C\	8e/L	Me,
.	8b/J	.
8F#L 8D\	4a/	me
8c\J	.	.
=12	=12	=12
2B 2G;<\	2g;/	me!
==	==	==
*-	*-	*-
!!!system-decoration: {(s1,s2)}
!!!RDF**kern: < = below
!!!ENC: Marta Lawrence
!!!END: 2021-06-02
!!!ENC: Mateusz Solarz
!!!END: 2021-05-11
